X: 11352
T: Earl Of Hyndford, The
R: reel
M: 4/4
K: Edorian
|:EFGB efge|dBAG FDAF|GEGB efge|dBAF BEED|
EFGB efge|dBAG FDAF|GEAF BG=cA|AGAF GEED:|
|:eBGg ebge|dd'ab fadf|geba fdBe|dBAF BE~E2|
eBGg ebge|dFAd FADF|GEAF BG=cA|AGAF GEED:|

